svg/icon/amb.svg

<svg xmlns="http://www.w3.org/2000/svg" xmlns:xlink="http://www.w3.org/1999/xlink" width="32" height="32" viewBox="0 0 32 32"><defs><linearGradient id="amb-c" x1="50%" x2="50%" y1="0%" y2="100%"><stop offset="0%" stop-color="#FFF" stop-opacity=".5"/><stop offset="100%" stop-opacity=".5"/></linearGradient><circle id="amb-b" cx="16" cy="15" r="15"/><filter id="amb-a" width="111.7%" height="111.7%" x="-5.8%" y="-4.2%" filterUnits="objectBoundingBox"><feOffset dy=".5" in="SourceAlpha" result="shadowOffsetOuter1"/><feGaussianBlur in="shadowOffsetOuter1" result="shadowBlurOuter1" stdDeviation=".5"/><feComposite in="shadowBlurOuter1" in2="SourceAlpha" operator="out" result="shadowBlurOuter1"/><feColorMatrix in="shadowBlurOuter1" values="0 0 0 0 0 0 0 0 0 0 0 0 0 0 0 0 0 0 0.199473505 0"/></filter><path id="amb-e" d="M27,15.0153994 C27,15.0178544 27,15.0203094 27,15.0227643 C26.9966935,15.1027711 26.9750766,15.1808993 26.93686,15.2509657 C26.79782,15.5062834 23.44568,21.5 16.00077,21.5 C8.55586,21.5 5.20295,15.5061718 5.06402,15.2509657 C5.02549627,15.180976 5.00357685,15.1028435 5,15.0227643 C5,15.0203094 5,15.0178544 5,15.0153994 C5,15.0103779 5,15.0052447 5,15.0002232 C5,14.9952016 5,14.9901801 5,14.9851585 C5,14.9827036 5,14.980137 5,14.977682 C5,14.9703171 5.00077,14.9629522 5.00143,14.955364 L5.00143,14.9546945 C5.00636451,14.8968265 5.02094488,14.8402279 5.04455,14.7873097 C5.04814333,14.7806143 5.05162667,14.7735469 5.055,14.7661076 L5.05709,14.7619787 C5.05918,14.7578499 5.06127,14.7537211 5.06347,14.7495923 C5.20262,14.4944978 8.55476,8.5 16,8.5 C23.44524,8.5 26.79705,14.4946093 26.93609,14.749927 C26.93829,14.7539443 26.94027,14.7580731 26.94236,14.7622019 L26.94456,14.7665539 C26.9480067,14.7733981 26.95127,14.7803167 26.95435,14.7873097 C26.9779551,14.8402279 26.9925355,14.8968265 26.99747,14.9546945 L26.99747,14.9558104 C26.99813,14.9631753 26.99857,14.9705403 26.9989,14.9781284 C26.9989,14.9805834 26.9989,14.9831499 26.9989,14.9856049 C26.9989,14.9906264 26.9989,14.995648 26.9989,15.0006695 C26.9989,15.0056911 27,15.0102663 27,15.0153994 Z M25.8901,15.0004464 C25.32745,14.1256931 23.21138,11.2072825 19.37502,10.0325757 C20.58425,10.8785387 21.47371,12.1657282 21.81174,13.6630414 C22.0751535,13.723603 22.2637836,13.9587623 22.2686961,14.2327145 C22.2736086,14.5066668 22.0935342,14.7486302 21.8324662,14.8188705 C21.5713982,14.8891108 21.2967893,14.7694798 21.1672267,14.5290647 C21.0376642,14.2886496 21.0866232,13.9895668 21.28583,13.8045374 C20.79171,11.5823362 18.96351,9.865414 16.71225,9.5660183 C16.6952933,9.56390687 16.6785719,9.56017051 16.66231,9.55485931 C16.44561,9.54303078 16.2249867,9.53700493 16.00044,9.53678175 C15.7758933,9.53655857 15.5546467,9.54258442 15.3367,9.55485931 C15.3205088,9.56015425 15.3038619,9.56389041 15.28698,9.5660183 C14.4111514,9.6837405 13.5770109,10.0170397 12.8573,10.5368504 C12.811551,10.5704334 12.7564697,10.5884079 12.7,10.5881818 C12.5816387,10.5885132 12.4766615,10.511136 12.4404026,10.3968363 C12.4041438,10.2825365 12.444933,10.1575721 12.54127,10.0878127 C12.56547,10.0702559 12.5898167,10.0529222 12.61431,10.0358118 C8.784,11.2127504 6.672,14.1264743 6.10968,15.0004464 C6.66683,15.8668303 8.74968,18.7398239 12.51916,19.935398 C11.2803135,19.0341319 10.430332,17.6843007 10.14503,16.1651101 C9.89117126,16.070104 9.7340566,15.8115492 9.7644381,15.5387913 C9.7948196,15.2660334 10.0048455,15.0495637 10.2732013,15.0144188 C10.5415571,14.9792739 10.7988891,15.1345366 10.8965581,15.3905245 C10.994227,15.6465124 10.9069914,15.9370683 10.68524,16.0943621 C11.1151356,18.3032169 12.8331182,20.0205363 15.0166,20.4240502 C15.3356,20.4502738 15.66351,20.4642226 16.00044,20.4642226 C16.33737,20.4642226 16.66572,20.4502738 16.98516,20.4240502 C17.7982323,20.2714949 18.5660522,19.9320235 19.22971,19.4316812 C19.3076601,19.3710295 19.4117746,19.3576834 19.5021467,19.3967583 C19.5925189,19.4358332 19.6551309,19.5212682 19.665984,19.6203165 C19.676837,19.7193647 19.6342475,19.8166626 19.55454,19.8749163 C19.5252067,19.8967879 19.4958733,19.9183992 19.46654,19.93975 C23.24515,18.7470772 25.33196,15.8678346 25.8901,15.0004464 Z M20.8202,15.0171848 C20.8202,17.7142011 18.6576,19.9086165 16.00033,19.9086165 C13.34306,19.9086165 11.1798,17.7140895 11.1798,15.0171848 C11.1798,12.3202802 13.3424,10.1257532 16,10.1257532 C18.6576,10.1257532 20.8202,12.3193875 20.8202,15.0171848 Z M20.27592,15.0171848 C20.27592,12.6245858 18.3584,10.6781232 16.00044,10.6781232 C13.64248,10.6781232 11.72342,12.6244742 11.72342,15.0171848 C11.72342,17.4098954 13.64171,19.3562465 16,19.3562465 C18.35829,19.3562465 20.27592,17.4097839 20.27592,15.0171848 Z M17.5763,13.6742004 C17.5764792,14.1978202 17.3172583,14.6864822 16.88638,14.9747807 L17.31538,17.6012721 C17.3497,17.8099452 17.20758,17.9798967 16.99858,17.9798967 L15.07886,17.9798967 C14.87129,17.9798967 14.72763,17.8098336 14.76129,17.6012721 L15.1893,14.9741111 C14.5769427,14.5626418 14.3369093,13.7693053 14.6162689,13.0801809 C14.8956285,12.3910565 15.6163837,11.9985481 16.336926,12.1431467 C17.0574684,12.2877452 17.5766219,12.9290786 17.5763,13.6742004 Z M21.92273,15.7171883 C21.77973,16.9781541 21.25767,18.1424831 20.41342,19.0853062 C20.3481109,19.1591005 20.2488366,19.1917457 20.1532717,19.1708529 C20.0577068,19.1499601 19.9804993,19.0787317 19.9509494,18.9841989 C19.9213995,18.8896661 19.9440367,18.7863187 20.01027,18.7133771 C20.7739386,17.8654035 21.25425,16.7945156 21.38274,15.6533589 C21.3986736,15.5139778 21.5151341,15.4088917 21.65345,15.4090886 C21.6637191,15.4090957 21.6739749,15.4098415 21.68414,15.4113204 C21.8332078,15.4290858 21.9399535,15.5659317 21.92273,15.7171883 Z M12.05265,10.8493021 C12.1051872,10.8996454 12.1357984,10.969141 12.137718,11.0424293 C12.1396377,11.1157176 12.1127077,11.1867642 12.06288,11.2398668 C11.29475,12.0641814 10.80162,13.09092 10.63992,14.2081581 C10.6199813,14.3432292 10.5058207,14.4433014 10.37119,14.4437244 C10.3576939,14.4436036 10.3442297,14.4423721 10.33093,14.4400419 C10.1823165,14.4177582 10.0795524,14.2776105 10.10125,14.126809 C10.2784881,12.900097 10.8256591,11.7591044 11.66765,10.8604611 C11.7171258,10.806976 11.785589,10.7757216 11.8578615,10.7736268 C11.930134,10.771532 12.0002446,10.79877 12.05265,10.8493021 Z"/><filter id="amb-d" width="115.9%" height="126.9%" x="-8%" y="-9.6%" filterUnits="objectBoundingBox"><feOffset dy=".5" in="SourceAlpha" result="shadowOffsetOuter1"/><feGaussianBlur in="shadowOffsetOuter1" result="shadowBlurOuter1" stdDeviation=".5"/><feColorMatrix in="shadowBlurOuter1" values="0 0 0 0 0 0 0 0 0 0 0 0 0 0 0 0 0 0 0.204257246 0"/></filter></defs><g fill="none" fill-rule="evenodd"><g fill-rule="nonzero"><use fill="#000" filter="url(#amb-a)" xlink:href="#amb-b"/><use fill="#3C5BE0" fill-rule="evenodd" xlink:href="#amb-b"/><use fill="url(#amb-c)" fill-rule="evenodd" style="mix-blend-mode:soft-light" xlink:href="#amb-b"/><circle cx="16" cy="15" r="14.5" stroke="#000" stroke-opacity=".097"/></g><g fill-rule="nonzero"><use fill="#000" filter="url(#amb-d)" xlink:href="#amb-e"/><use fill="#FFF" fill-rule="evenodd" xlink:href="#amb-e"/></g></g></svg>

<svg xmlns="http://www.w3.org/2000/svg" xmlns:xlink="http://www.w3.org/1999/xlink" width="32" height="32" viewBox="0 0 32 32"><defs><linearGradient id="c" x1="50%" x2="50%" y1="0%" y2="100%"><stop offset="0%" stop-color="#FFF" stop-opacity=".5"/><stop offset="100%" stop-opacity=".5"/></linearGradient><circle id="b" cx="16" cy="15" r="15"/><filter id="a" width="111.7%" height="111.7%" x="-5.8%" y="-4.2%" filterUnits="objectBoundingBox"><feOffset dy=".5" in="SourceAlpha" result="shadowOffsetOuter1"/><feGaussianBlur in="shadowOffsetOuter1" result="shadowBlurOuter1" stdDeviation=".5"/><feComposite in="shadowBlurOuter1" in2="SourceAlpha" operator="out" result="shadowBlurOuter1"/><feColorMatrix in="shadowBlurOuter1" values="0 0 0 0 0 0 0 0 0 0 0 0 0 0 0 0 0 0 0.199473505 0"/></filter><path id="e" d="M27 15.015v.008a.522.522 0 0 1-.063.228c-.14.255-3.491 6.249-10.936 6.249S5.203 15.506 5.064 15.251A.522.522 0 0 1 5 15.023v-.045l.001-.023a.52.52 0 0 1 .054-.189l.002-.004a.662.662 0 0 1 .006-.012C5.203 14.494 8.555 8.5 16 8.5c7.445 0 10.797 5.995 10.936 6.25l.006.012.003.005a.52.52 0 0 1 .053.188v.046l.002.014zM25.89 15c-.563-.874-2.679-3.793-6.515-4.967a6.07 6.07 0 0 1 2.437 3.63c.263.06.452.296.457.57a.594.594 0 0 1-.437.586.584.584 0 0 1-.665-.29.601.601 0 0 1 .119-.724c-.494-2.223-2.322-3.94-4.574-4.239a.267.267 0 0 1-.05-.011 12.37 12.37 0 0 0-1.325 0 .268.268 0 0 1-.05.011 5.372 5.372 0 0 0-2.43.97.272.272 0 0 1-.417-.14.278.278 0 0 1 .101-.308 5.02 5.02 0 0 1 .073-.052C8.784 11.213 6.672 14.126 6.11 15c.557.867 2.64 3.74 6.41 4.935a6.037 6.037 0 0 1-2.375-3.77.597.597 0 0 1-.38-.626c.03-.273.24-.49.508-.525a.587.587 0 0 1 .624.377.601.601 0 0 1-.212.703c.43 2.21 2.148 3.927 4.332 4.33a12.003 12.003 0 0 0 1.968 0 5.375 5.375 0 0 0 2.245-.992.27.27 0 0 1 .272-.035.278.278 0 0 1 .052.478l-.087.065c3.778-1.193 5.865-4.072 6.423-4.94zm-5.07.017c0 2.697-2.162 4.892-4.82 4.892-2.657 0-4.82-2.195-4.82-4.892 0-2.697 2.162-4.891 4.82-4.891 2.658 0 4.82 2.193 4.82 4.891zm-.544 0c0-2.392-1.918-4.339-4.276-4.339-2.358 0-4.277 1.946-4.277 4.34 0 2.392 1.919 4.338 4.277 4.338s4.276-1.946 4.276-4.339zm-2.7-1.343c0 .524-.259 1.012-.69 1.3l.43 2.627a.314.314 0 0 1-.317.379h-1.92a.315.315 0 0 1-.318-.379l.428-2.627a1.573 1.573 0 0 1-.573-1.894c.28-.689 1-1.081 1.72-.937.721.145 1.24.786 1.24 1.531zm4.347 2.043a6.041 6.041 0 0 1-1.51 3.368.27.27 0 0 1-.462-.1.28.28 0 0 1 .06-.272 5.49 5.49 0 0 0 1.372-3.06.274.274 0 0 1 .301-.242c.15.018.256.155.239.306zm-9.87-4.868a.278.278 0 0 1 .01.39 5.49 5.49 0 0 0-1.423 2.97.274.274 0 0 1-.31.231.276.276 0 0 1-.229-.313 6.04 6.04 0 0 1 1.567-3.267.27.27 0 0 1 .385-.01z"/><filter id="d" width="115.9%" height="126.9%" x="-8%" y="-9.6%" filterUnits="objectBoundingBox"><feOffset dy=".5" in="SourceAlpha" result="shadowOffsetOuter1"/><feGaussianBlur in="shadowOffsetOuter1" result="shadowBlurOuter1" stdDeviation=".5"/><feColorMatrix in="shadowBlurOuter1" values="0 0 0 0 0 0 0 0 0 0 0 0 0 0 0 0 0 0 0.204257246 0"/></filter></defs><g fill="none"><use fill="#000" filter="url(#a)" xlink:href="#b"/><use fill="#3C5BE0" fill-rule="evenodd" xlink:href="#b"/><use fill="url(#c)" fill-rule="evenodd" style="mix-blend-mode:soft-light" xlink:href="#b"/><circle cx="16" cy="15" r="14.5" stroke="#000" stroke-opacity=".097"/><use fill="#000" filter="url(#d)" xlink:href="#e"/><use fill="#FFF" fill-rule="evenodd" xlink:href="#e"/></g></svg>
